z_dist/img/icons/crypto/internet-computer-ICP.svg

<svg width="64" height="64" viewBox="0 0 64 64" fill="none" xmlns="http://www.w3.org/2000/svg">
<g clip-path="url(#clip0_257_1582)">
<rect y="0.000244141" width="64" height="64" rx="4" fill="white"/>
<path d="M46.402 17.9602C43.2796 17.9602 39.8606 19.6614 36.2542 23.0171C34.5525 24.5934 33.0538 26.3103 31.9609 27.6681C31.9609 27.6681 33.7095 29.6815 35.6297 31.851C36.6757 30.5399 38.1589 28.7607 39.8918 27.1531C43.0923 24.1564 45.1843 23.5477 46.3864 23.5477C50.8826 23.5477 54.5358 27.3248 54.5358 31.9914C54.5358 36.6113 50.8826 40.3883 46.3864 40.4351C46.1678 40.4351 45.918 40.4039 45.6058 40.3415C46.9172 40.9502 48.3379 41.3872 49.6649 41.3872C57.908 41.3872 59.5316 35.6904 59.6253 35.2846C59.8595 34.2389 60 33.1464 60 32.0226C59.9844 24.2657 53.8957 17.9602 46.402 17.9602Z" fill="url(#paint0_linear_257_1582)"/>
<path d="M17.598 46.0227C20.7204 46.0227 24.1394 44.3215 27.7458 40.9659C29.4475 39.3895 30.9463 37.6727 32.0391 36.3148C32.0391 36.3148 30.2905 34.3014 28.3703 32.132C27.3243 33.443 25.8411 35.2223 24.1082 36.8298C20.9078 39.7953 18.8001 40.4352 17.6136 40.4352C13.1174 40.4352 9.46419 36.6582 9.46419 31.9915C9.46419 27.3717 13.1174 23.5946 17.6136 23.5478C17.8322 23.5478 18.082 23.579 18.3942 23.6414C17.0828 23.0327 15.6621 22.5957 14.3351 22.5957C6.092 22.5801 4.46836 28.2769 4.37469 28.6983C4.14051 29.744 4 30.8365 4 31.9603C4 39.7172 10.0887 46.0227 17.598 46.0227Z" fill="url(#paint1_linear_257_1582)"/>
<path fill-rule="evenodd" clip-rule="evenodd" d="M23.8739 27.2779C22.9684 26.4039 18.5658 22.8298 14.3506 22.7049C6.82563 22.5176 4.62434 27.9803 4.42139 28.6826C5.8733 22.5644 11.2438 17.9914 17.6135 17.9602C22.8123 17.9602 28.0735 23.0639 31.9609 27.6681L31.9765 27.6525C31.9765 27.6525 33.725 29.6659 35.6453 31.8353C35.6453 31.8353 37.831 34.4106 40.1415 36.6737C41.047 37.5477 45.434 41.075 49.6492 41.1999C57.3771 41.4184 59.516 35.6436 59.6253 35.2066C58.2046 41.3716 52.8185 45.9602 46.4176 45.9914C41.2188 45.9914 35.9575 40.8877 32.0546 36.2835C32.0546 36.2991 32.0389 36.2991 32.0389 36.3147C32.0389 36.3147 30.2904 34.3013 28.3701 32.1319C28.3857 32.1319 26.2001 29.541 23.8739 27.2779ZM4.42139 28.745C4.42139 28.7294 4.42139 28.7138 4.437 28.6982C4.42139 28.7138 4.42139 28.7294 4.42139 28.745Z" fill="#29ABE2"/>
</g>
<defs>
<linearGradient id="paint0_linear_257_1582" x1="39.0933" y1="20.1837" x2="58.3344" y2="39.5886" gradientUnits="userSpaceOnUse">
<stop offset="0.21" stop-color="#F15A24"/>
<stop offset="0.6841" stop-color="#FBB03B"/>
</linearGradient>
<linearGradient id="paint1_linear_257_1582" x1="24.9116" y1="43.8023" x2="5.67052" y2="24.3974" gradientUnits="userSpaceOnUse">
<stop offset="0.21" stop-color="#ED1E79"/>
<stop offset="0.8929" stop-color="#522785"/>
</linearGradient>
<clipPath id="clip0_257_1582">
<rect width="64" height="64" fill="white" transform="translate(0 0.000244141)"/>
</clipPath>
</defs>
</svg>

<svg width="64" height="64" fill="none" xmlns="http://www.w3.org/2000/svg"><g clip-path="url(#clip0_257_1582)"><rect width="64" height="64" rx="4" fill="#fff"/><path d="M46.402 17.96c-3.122 0-6.541 1.701-10.148 5.057-1.701 1.576-3.2 3.293-4.293 4.651 0 0 1.748 2.014 3.669 4.183 1.046-1.311 2.529-3.09 4.262-4.698 3.2-2.997 5.292-3.605 6.494-3.605 4.497 0 8.15 3.777 8.15 8.443 0 4.62-3.653 8.397-8.15 8.444a4.05 4.05 0 01-.78-.093c1.311.608 2.732 1.045 4.059 1.045 8.243 0 9.867-5.697 9.96-6.102.234-1.046.375-2.139.375-3.262-.016-7.757-6.104-14.063-13.598-14.063z" fill="url(#paint0_linear_257_1582)"/><path d="M17.598 46.023c3.122 0 6.541-1.702 10.148-5.057 1.702-1.577 3.2-3.293 4.293-4.651 0 0-1.748-2.014-3.669-4.183-1.046 1.311-2.529 3.09-4.262 4.698-3.2 2.965-5.308 3.605-6.494 3.605-4.497 0-8.15-3.777-8.15-8.444 0-4.62 3.653-8.396 8.15-8.443.218 0 .468.031.78.093-1.311-.608-2.732-1.045-4.059-1.045-8.243-.016-9.867 5.68-9.96 6.102A14.92 14.92 0 004 31.96c0 7.757 6.089 14.063 13.598 14.063z" fill="url(#paint1_linear_257_1582)"/><path fill-rule="evenodd" clip-rule="evenodd" d="M23.874 27.278c-.906-.874-5.308-4.448-9.523-4.573-7.525-.187-9.727 5.275-9.93 5.978 1.452-6.119 6.823-10.692 13.192-10.723 5.2 0 10.46 5.104 14.348 9.708l.016-.015s1.748 2.013 3.668 4.182c0 0 2.186 2.576 4.496 4.839.906.874 5.293 4.401 9.508 4.526 7.728.218 9.867-5.556 9.976-5.993-1.42 6.165-6.806 10.753-13.207 10.784-5.2 0-10.46-5.103-14.363-9.708 0 .016-.016.016-.016.032 0 0-1.749-2.014-3.669-4.183.016 0-2.17-2.591-4.496-4.854zM4.42 28.745c0-.016 0-.031.016-.047-.016.016-.016.031-.016.047z" fill="#29ABE2"/></g><defs><linearGradient id="paint0_linear_257_1582" x1="39.093" y1="20.184" x2="58.334" y2="39.589" gradientUnits="userSpaceOnUse"><stop offset=".21" stop-color="#F15A24"/><stop offset=".684" stop-color="#FBB03B"/></linearGradient><linearGradient id="paint1_linear_257_1582" x1="24.912" y1="43.802" x2="5.671" y2="24.397" gradientUnits="userSpaceOnUse"><stop offset=".21" stop-color="#ED1E79"/><stop offset=".893" stop-color="#522785"/></linearGradient><clipPath id="clip0_257_1582"><path fill="#fff" d="M0 0h64v64H0z"/></clipPath></defs></svg>
